packages/tokens/icons/contentPersonalization/size24Px.svg

<svg viewBox="0 0 24 24" fill="none" xmlns="http://www.w3.org/2000/svg" width="1em" height="1em"><path d="M16.5 15.5H19.5C20.6046 15.5 21.5 16.3954 21.5 17.5V17.5" stroke="currentColor" stroke-linecap="round" stroke-linejoin="round"/><path d="M18 13.5C18.8284 13.5 19.5 12.8284 19.5 12C19.5 11.1716 18.8284 10.5 18 10.5C17.1716 10.5 16.5 11.1716 16.5 12C16.5 12.8284 17.1716 13.5 18 13.5Z" stroke="currentColor" stroke-linecap="round" stroke-linejoin="round"/><path d="M7.5 15.5H4.5C3.39543 15.5 2.5 16.3954 2.5 17.5V17.5" stroke="currentColor" stroke-linecap="round" stroke-linejoin="round"/><path d="M6 13.5C5.17157 13.5 4.5 12.8284 4.5 12C4.5 11.1716 5.17157 10.5 6 10.5C6.82843 10.5 7.5 11.1716 7.5 12C7.5 12.8284 6.82843 13.5 6 13.5Z" stroke="currentColor" stroke-linecap="round" stroke-linejoin="round"/><path d="M7.38501 21.5644L7.38501 21.0537C7.38501 19.6433 8.52834 18.5 9.9387 18.5H14.0246C15.435 18.5 16.5783 19.6433 16.5783 21.0537V21.5644" stroke="currentColor" stroke-linecap="round" stroke-linejoin="round"/><path d="M12 16.5C13.3807 16.5 14.5 15.3807 14.5 14C14.5 12.6193 13.3807 11.5 12 11.5C10.6193 11.5 9.5 12.6193 9.5 14C9.5 15.3807 10.6193 16.5 12 16.5Z" stroke="currentColor" stroke-linecap="round" stroke-linejoin="round"/><rect x="8.45711" y="5.75" width="5" height="5" rx="0.5" transform="rotate(-45 8.45711 5.75)" stroke="currentColor"/></svg>

<svg xmlns="http://www.w3.org/2000/svg" fill="none" viewBox="0 0 24 24" width="1em" height="1em"><path stroke="currentColor" stroke-linecap="round" stroke-linejoin="round" d="M16.5 15.5h3a2 2 0 0 1 2 2v0m-3.5-4a1.5 1.5 0 1 0 0-3 1.5 1.5 0 0 0 0 3Zm-10.5 2h-3a2 2 0 0 0-2 2v0m3.5-4a1.5 1.5 0 1 1 0-3 1.5 1.5 0 0 1 0 3Zm1.385 8.064v-.51A2.554 2.554 0 0 1 9.939 18.5h4.086a2.554 2.554 0 0 1 2.553 2.554v.51M12 16.5a2.5 2.5 0 1 0 0-5 2.5 2.5 0 0 0 0 5Z"/><rect width="5" height="5" x="8.457" y="5.75" stroke="currentColor" rx=".5" transform="rotate(-45 8.457 5.75)"/></svg>
